X:8
T:Old Blackbird, The
N:Transcribed by Alan Ng. Most ornaments omitted here.
C:Traditional
R:hornpipe
S:as learned via Jamie Ahlman Ng from Mary Bergin's 1996 Irish Fest whistle class
Z:id:ng-other-8 transcribed by Alan Ng agng@students.wisc.edu Sept. 5, 1999
M:C|
K:D
AG|~F3A GFD2|de(3fed dcAF|~G3F GFDE|FdAF GEAG|~F3A GFD2|de(3fed dcAG|AdcA GdAG|F2DE D2::\
fg|ag(3fga gfe2|(3fed(3edc dcA2|ag(3fga gfde|fdgf ezfg|a2(3gfe ~f3e|dcde fdAG|AdcA GdAG|F2DE D2:|**
